**kern	**kern	**dynam
*part1	*part1	*part1
*staff2	*staff1	*
*I"Piano	*	*
*clefF4	*clefG2	*
*k[]	*k[]	*
=1	=1	=1
(8AA^ 8E	(4f	.
4AA~) 4E	.	.
.	8e	.
=	=	=
(4AA^ 4E	4c	.
8AA~) 8E	8e)	.
=	=	=
(4C^ 4E 4A	8r	.
.	(8.eL	<
8C~) 8E 8A	.	.
.	16gJk	.
=	=	=
(4F^ 4A 4c	16aLL	.
.	16b	.
.	16cc	.
.	16ee	.
8F~) 8A 8c	16cc	.
.	16bJJ	.
=	=	=
(4E^ 4A 4c	16aLL	[ >
.	16b	.
.	16a	.
.	16g	.
8E~) 8A 8c	16f	.
.	16eJJ)	.
=	=	=
(4D^ 4A 4d	[4.f^^	]
8D~) 8A 8d	.	.
=	=	=
(4BB^ 4F 4d	4f]	.
8BB~) 8F 8d	8r	.
=	=	=
*-	*-	*-
!!!system-decoration: {(s1,s2)}
